icons/excalidraw.svg

<svg width="16" height="16" viewBox="0 0 16 16" fill="none" xmlns="http://www.w3.org/2000/svg">
<path fill-rule="evenodd" clip-rule="evenodd" d="M2 12L4.5 14L13 6.5V2.5L9 3.5L2 12ZM4.5 7L7 4.5L5.5 3L2.5 2.5L3 5.5L4.5 7ZM11 9.5L9 11.5L12 14L13.5 12.5L11 9.5ZM10.5 6.5C11.0523 6.5 11.5 6.05228 11.5 5.5C11.5 4.94772 11.0523 4.5 10.5 4.5C9.94772 4.5 9.5 4.94772 9.5 5.5C9.5 6.05228 9.94772 6.5 10.5 6.5Z" fill="#6965DB"/>
</svg>

<svg xmlns="http://www.w3.org/2000/svg" width="16" height="16" fill="none" viewBox="0 0 16 16"><path fill="#6965DB" fill-rule="evenodd" d="m2 12 2.5 2L13 6.5v-4l-4 1zm2.5-5L7 4.5 5.5 3l-3-.5.5 3zM11 9.5l-2 2 3 2.5 1.5-1.5zm-.5-3a1 1 0 1 0 0-2 1 1 0 0 0 0 2" clip-rule="evenodd"/></svg>
